X:1
T:James Gibb editions
T:James Gibb editions
T:O paradise, O paradise - Barnby
%%score [ ( 1 2 ) ( 3 4 ) ]
L:1/8
Q:1/4=80
M:4/4
K:Eb
V:1 treble nm="Midi_74"
V:2 treble 
V:3 bass nm="Midi_74"
V:4 bass 
V:1
"^Paradise (86. 86. 66. 66)""^Frederick William Faber\n(1814-63)""^O paradise, O paradise""^Joseph Barnby\n(1838-96)" G2 | %1
w: |
 A3 G G2 G2 | B3 A A2 || G2 | F2 E2 F2 A2 | G6 || G2 | G3 G ^F2 G2 | =A3 A G2 || B2 | %10
w: |||||||||
 B2 G2 =A2 c2 | B6 ||[M:4/4]"^Refrain" B2 | e2 B2 d2 c2 | B6 || B2 | =A2 c2 B2 A2 | B4 || B4 | %19
w: ||Where|loy- al hearts and|true|||||
 e2 G2 d2"^1" c2 | B2 || G2 E2 A2 | F6 F2 | E6 || E4 E4 |] %25
w: ||||||
V:2
 E2 | E3 E E2 E2 | E3 E E2 || E2 | D2 E2 E2 D2 | E6 || C2- | D3 D D2 D2 | D3 D D2 || =E2 | %10
w: ||||||||||
 F2 D2 E2 E2 | D6 ||[M:4/4] D2 | (E4 D2) E2 | F2 D2 E2 || B,2 | E2 E2 D2 D2 | D4 || D4 | %19
w: ||Where|loy\- * al|hearts and true|Stand|e- ver in the|light,|All|
 E2 E2 E2 E2 | D2 || D2 E2 E2 | E4 D4 | E6 || C4 B,4 |] %25
w: rap- ture through and|through,|In God's most|ho- ly|sight.|A- men.|
V:3
 B,2 | C3 B, B,2 E2 | D3 C C2 || B,2 | A,2 G,2 C2 B,2 | B,6 || =A,2 | B,3 B, =A,2 B,2 | C3 C B,2 || %9
w: |||||||||
 C2 | D2 B,2 C2 =A,2 | B,6 ||[M:4/4] B,2 | B,4 A,4 | A,2 A,2 G,2 || G,2 | G,2 G,2 ^F,2 C2 | B,4 || %18
w: ||||loy- al|||||
"^1 O Paradise, O Paradise,\nWho doth not crave for rest?\nWho would not seek the happy land\nWhere they that loved are blest:\n\nRefrain:\nWhere loyal hearts and true\nStand ever in the light,\nAll rapture, through and through,\nIn God's most holy sight.\n\n2 O Paradise, O Paradise,\nThe world is growing old;\nWho would not be at rest and free\nWhere love is never cold? [Refrain]" !courtesy!_A,4 | %19
w: |
 G,2 B,2 B,2"^1" A,2 | F,2 || %21
w: ||
 B,2"^3 O Paradise, O Paradise,\nWe long to sin no more;\nWe long to be as pure on earth\nAs on thy spotless shore: [Refrain]\n\n4 O Paradise, O Paradise,\nWe shall not wait for long;\nE'en now the loving ear may catch\nFaint fragments of thy song: [Refrain]\n\n5 Lord Jesus, King of Paradise,\nO keep us in thy love,\nAnd guide us to that happy land\nOf perfect rest above: [Refrain]" G,2 A,2 | %22
w: |
 (B,2 F,2) A,4 | G,6 || A,4 G,4 |] %25
w: |||
V:4
 E,2 | E,3 E, E,2 E,2 | E,3 E, E,2 || E,2 | B,,2 C,2 A,,2 B,,2 | E,6 || E,2 | D,3 D, D,2 G,2 | %8
w: ||||||||
 ^F,3 F, G,2 || G,2 | F,2 F,2 F,2 F,2 | B,6 ||[M:4/4] !courtesy!_A,2 | (G,4 F,2) E,2 | %14
w: ||||Where|loy\- * al|
 D,2- B,,2 E,2 || D,2 | C,2 =A,,2 D,2 D,2 | G,4 || !courtesy!=F,4 | E,2 E,2 A,,2 A,,2 | B,,2 || %21
w: |||||||
 B,,2 C,2 C,2 | B,,4 B,,4 | E,6 || A,,4 E,4 |] %25
w: ||||

